frontend/assets/name-tag.svg

<?xml version="1.0"?><svg fill="#000000" xmlns="http://www.w3.org/2000/svg" viewBox="0 0 64 64" preserveAspectRatio="none">    <path d="M 6 10 C 3.243 10 1 12.243 1 15 L 1 49 C 1 51.757 3.243 54 6 54 L 58 54 C 60.757 54 63 51.757 63 49 L 63 15 C 63 12.243 60.757 10 58 10 L 6 10 z M 6 12 L 58 12 C 59.654 12 61 13.346 61 15 L 61 49 C 61 50.654 59.654 52 58 52 L 6 52 C 4.346 52 3 50.654 3 49 L 3 15 C 3 13.346 4.346 12 6 12 z M 7 14 C 6.447 14 6 14.448 6 15 L 6 17 C 6 17.552 6.447 18 7 18 C 7.553 18 8 17.552 8 17 L 8 15 C 8 14.448 7.553 14 7 14 z M 12 14 C 11.447 14 11 14.448 11 15 L 11 17 C 11 17.552 11.447 18 12 18 C 12.553 18 13 17.552 13 17 L 13 15 C 13 14.448 12.553 14 12 14 z M 17 14 C 16.447 14 16 14.448 16 15 L 16 17 C 16 17.552 16.447 18 17 18 C 17.553 18 18 17.552 18 17 L 18 15 C 18 14.448 17.553 14 17 14 z M 22 14 C 21.447 14 21 14.448 21 15 L 21 17 C 21 17.552 21.447 18 22 18 C 22.553 18 23 17.552 23 17 L 23 15 C 23 14.448 22.553 14 22 14 z M 27 14 C 26.447 14 26 14.448 26 15 L 26 17 C 26 17.552 26.447 18 27 18 C 27.553 18 28 17.552 28 17 L 28 15 C 28 14.448 27.553 14 27 14 z M 32 14 C 31.447 14 31 14.448 31 15 L 31 17 C 31 17.552 31.447 18 32 18 C 32.553 18 33 17.552 33 17 L 33 15 C 33 14.448 32.553 14 32 14 z M 37 14 C 36.447 14 36 14.448 36 15 L 36 17 C 36 17.552 36.447 18 37 18 C 37.553 18 38 17.552 38 17 L 38 15 C 38 14.448 37.553 14 37 14 z M 42 14 C 41.447 14 41 14.448 41 15 L 41 17 C 41 17.552 41.447 18 42 18 C 42.553 18 43 17.552 43 17 L 43 15 C 43 14.448 42.553 14 42 14 z M 47 14 C 46.447 14 46 14.448 46 15 L 46 17 C 46 17.552 46.447 18 47 18 C 47.553 18 48 17.552 48 17 L 48 15 C 48 14.448 47.553 14 47 14 z M 52 14 C 51.447 14 51 14.448 51 15 L 51 17 C 51 17.552 51.447 18 52 18 C 52.553 18 53 17.552 53 17 L 53 15 C 53 14.448 52.553 14 52 14 z M 57 14 C 56.447 14 56 14.448 56 15 L 56 17 C 56 17.552 56.447 18 57 18 C 57.553 18 58 17.552 58 17 L 58 15 C 58 14.448 57.553 14 57 14 z M 20 21 C 16.134 21 13 24.134 13 28 L 13 30 C 13.03 31.684 13.548234 33.324703 14.490234 34.720703 C 11.219234 35.938703 8.5616094 38.401313 7.0996094 41.570312 C 6.8266094 42.050312 6.9946094 42.660594 7.4746094 42.933594 C 7.9546094 43.206594 8.5668438 43.038594 8.8398438 42.558594 C 8.8638437 42.517594 8.8823906 42.473688 8.9003906 42.429688 C 10.241391 39.485687 12.796391 37.270375 15.900391 36.359375 C 17.018391 37.393375 18.479953 37.978 20.001953 38 C 21.520953 37.975 22.976797 37.390375 24.091797 36.359375 C 27.196797 37.269375 29.751797 39.484687 31.091797 42.429688 C 31.257797 42.780687 31.612 43.003 32 43 C 32.552 42.998 32.998094 42.548094 32.996094 41.996094 C 32.996094 41.848094 32.963391 41.703313 32.900391 41.570312 C 31.435391 38.404313 28.778766 35.946469 25.509766 34.730469 C 26.453766 33.331469 26.972 31.688 27 30 L 27 28 C 27 24.134 23.866 21 20 21 z M 20 23 C 22.761 23 25 25.239 25 28 L 25 30 C 25 32.72 22.77 36 20 36 C 17.23 36 15 32.72 15 30 L 15 28 C 15 25.239 17.239 23 20 23 z M 38 25 C 37.448 25 37 25.448 37 26 C 37 26.552 37.448 27 38 27 L 48 27 C 48.552 27 49 26.552 49 26 C 49 25.448 48.552 25 48 25 L 38 25 z M 52 25 C 51.448 25 51 25.448 51 26 C 51 26.552 51.448 27 52 27 L 56 27 C 56.552 27 57 26.552 57 26 C 57 25.448 56.552 25 56 25 L 52 25 z M 38 31 C 37.448 31 37 31.448 37 32 C 37 32.552 37.448 33 38 33 L 56 33 C 56.552 33 57 32.552 57 32 C 57 31.448 56.552 31 56 31 L 38 31 z M 38 37 C 37.448 37 37 37.448 37 38 C 37 38.552 37.448 39 38 39 L 50 39 C 50.552 39 51 38.552 51 38 C 51 37.448 50.552 37 50 37 L 38 37 z M 7 46 C 6.447 46 6 46.448 6 47 L 6 49 C 6 49.552 6.447 50 7 50 C 7.553 50 8 49.552 8 49 L 8 47 C 8 46.448 7.553 46 7 46 z M 12 46 C 11.447 46 11 46.448 11 47 L 11 49 C 11 49.552 11.447 50 12 50 C 12.553 50 13 49.552 13 49 L 13 47 C 13 46.448 12.553 46 12 46 z M 17 46 C 16.447 46 16 46.448 16 47 L 16 49 C 16 49.552 16.447 50 17 50 C 17.553 50 18 49.552 18 49 L 18 47 C 18 46.448 17.553 46 17 46 z M 22 46 C 21.447 46 21 46.448 21 47 L 21 49 C 21 49.552 21.447 50 22 50 C 22.553 50 23 49.552 23 49 L 23 47 C 23 46.448 22.553 46 22 46 z M 27 46 C 26.447 46 26 46.448 26 47 L 26 49 C 26 49.552 26.447 50 27 50 C 27.553 50 28 49.552 28 49 L 28 47 C 28 46.448 27.553 46 27 46 z M 32 46 C 31.447 46 31 46.448 31 47 L 31 49 C 31 49.552 31.447 50 32 50 C 32.553 50 33 49.552 33 49 L 33 47 C 33 46.448 32.553 46 32 46 z M 37 46 C 36.447 46 36 46.448 36 47 L 36 49 C 36 49.552 36.447 50 37 50 C 37.553 50 38 49.552 38 49 L 38 47 C 38 46.448 37.553 46 37 46 z M 42 46 C 41.447 46 41 46.448 41 47 L 41 49 C 41 49.552 41.447 50 42 50 C 42.553 50 43 49.552 43 49 L 43 47 C 43 46.448 42.553 46 42 46 z M 47 46 C 46.447 46 46 46.448 46 47 L 46 49 C 46 49.552 46.447 50 47 50 C 47.553 50 48 49.552 48 49 L 48 47 C 48 46.448 47.553 46 47 46 z M 52 46 C 51.447 46 51 46.448 51 47 L 51 49 C 51 49.552 51.447 50 52 50 C 52.553 50 53 49.552 53 49 L 53 47 C 53 46.448 52.553 46 52 46 z M 57 46 C 56.447 46 56 46.448 56 47 L 56 49 C 56 49.552 56.447 50 57 50 C 57.553 50 58 49.552 58 49 L 58 47 C 58 46.448 57.553 46 57 46 z"/></svg>

<svg xmlns="http://www.w3.org/2000/svg" viewBox="0 0 64 64" preserveAspectRatio="none"><path d="M6 10c-2.757 0-5 2.243-5 5v34c0 2.757 2.243 5 5 5h52c2.757 0 5-2.243 5-5V15c0-2.757-2.243-5-5-5H6zm0 2h52c1.654 0 3 1.346 3 3v34c0 1.654-1.346 3-3 3H6c-1.654 0-3-1.346-3-3V15c0-1.654 1.346-3 3-3zm1 2a1 1 0 00-1 1v2a1 1 0 102 0v-2a1 1 0 00-1-1zm5 0a1 1 0 00-1 1v2a1 1 0 102 0v-2a1 1 0 00-1-1zm5 0a1 1 0 00-1 1v2a1 1 0 102 0v-2a1 1 0 00-1-1zm5 0a1 1 0 00-1 1v2a1 1 0 102 0v-2a1 1 0 00-1-1zm5 0a1 1 0 00-1 1v2a1 1 0 102 0v-2a1 1 0 00-1-1zm5 0a1 1 0 00-1 1v2a1 1 0 102 0v-2a1 1 0 00-1-1zm5 0a1 1 0 00-1 1v2a1 1 0 102 0v-2a1 1 0 00-1-1zm5 0a1 1 0 00-1 1v2a1 1 0 102 0v-2a1 1 0 00-1-1zm5 0a1 1 0 00-1 1v2a1 1 0 102 0v-2a1 1 0 00-1-1zm5 0a1 1 0 00-1 1v2a1 1 0 102 0v-2a1 1 0 00-1-1zm5 0a1 1 0 00-1 1v2a1 1 0 102 0v-2a1 1 0 00-1-1zm-37 7a7 7 0 00-7 7v2a8.72 8.72 0 001.49 4.72 13.22 13.22 0 00-7.39 6.85 1 1 0 101.8.86 11.139 11.139 0 017-6.07A6.174 6.174 0 0020.002 38a6.174 6.174 0 004.09-1.64c3.105.91 5.66 3.125 7 6.07a1 1 0 001.809-.86 13.222 13.222 0 00-7.391-6.84A8.717 8.717 0 0027 30v-2a7 7 0 00-7-7zm0 2a5 5 0 015 5v2c0 2.72-2.23 6-5 6s-5-3.28-5-6v-2a5 5 0 015-5zm18 2a1 1 0 000 2h10a1 1 0 000-2H38zm14 0a1 1 0 000 2h4a1 1 0 000-2h-4zm-14 6a1 1 0 000 2h18a1 1 0 000-2H38zm0 6a1 1 0 000 2h12a1 1 0 000-2H38zM7 46a1 1 0 00-1 1v2a1 1 0 102 0v-2a1 1 0 00-1-1zm5 0a1 1 0 00-1 1v2a1 1 0 102 0v-2a1 1 0 00-1-1zm5 0a1 1 0 00-1 1v2a1 1 0 102 0v-2a1 1 0 00-1-1zm5 0a1 1 0 00-1 1v2a1 1 0 102 0v-2a1 1 0 00-1-1zm5 0a1 1 0 00-1 1v2a1 1 0 102 0v-2a1 1 0 00-1-1zm5 0a1 1 0 00-1 1v2a1 1 0 102 0v-2a1 1 0 00-1-1zm5 0a1 1 0 00-1 1v2a1 1 0 102 0v-2a1 1 0 00-1-1zm5 0a1 1 0 00-1 1v2a1 1 0 102 0v-2a1 1 0 00-1-1zm5 0a1 1 0 00-1 1v2a1 1 0 102 0v-2a1 1 0 00-1-1zm5 0a1 1 0 00-1 1v2a1 1 0 102 0v-2a1 1 0 00-1-1zm5 0a1 1 0 00-1 1v2a1 1 0 102 0v-2a1 1 0 00-1-1z"/></svg>
